src/epub/images/titlepage.svg

<?xml version="1.0" encoding="utf-8"?>
<svg xmlns="http://www.w3.org/2000/svg" xmlns:svg="http://www.w3.org/2000/svg" version="1.1" viewBox="0 0 1400 1050">
	<title>The titlepage for the Standard Ebooks edition of Gitanjali, by Rabindranath Tagore</title>
	<g>
		<path d="m 504.22734,86.771929 -35.64913,0 0,13.567251 17.77778,0 c 0,9.45029 -8.32748,14.87719 -16.74854,14.87719 -10.8538,0 -19.64912,-10.66666 -19.64912,-23.766078 0,-13.380117 8.79532,-24.140352 19.64912,-24.140352 6.83041,0 12.72515,2.713451 17.21638,9.918129 L 498.3326,64.59649 c -6.73684,-8.140351 -16.18714,-13.192983 -29.75439,-13.192983 -21.7076,0 -37.61403,17.871346 -37.61403,40.046785 0,22.081868 16.8421,39.953218 37.61403,39.953218 15.1579,0 31.4386,-8.32749 35.64913,-27.88304 l 0,-16.748541 z"/>
		<path d="m 534.50219,52.807016 -17.59064,0 0,77.192984 17.59064,0 0,-77.192984 z"/>
		<path d="m 541.35161,68.245613 18.33918,0 0,61.754387 17.59064,0 0,-61.754387 18.33918,0 0,-15.438597 -54.269,0 0,15.438597 z"/>
		<path d="m 641.59137,52.807016 -16.2807,0 L 594.15277,130 l 18.90059,0 5.7076,-15.4386 29.38012,0 5.7076,15.4386 18.90059,0 -31.1579,-77.192984 z m 0.5614,46.31579 -17.40351,0 8.60819,-22.45614 0.18714,0 8.60818,22.45614 z"/>
		<path d="m 698.2595,82.093566 0.18713,0 L 729.13669,130 l 17.59065,0 0,-77.192984 -17.59065,0 0,47.906434 -0.18713,0 -30.69006,-47.906434 -17.59064,0 0,77.192984 17.59064,0 0,-47.906434 z"/>
		<path d="m 796.56213,52.807016 -17.59065,0 0,50.900584 c 0,7.76608 -3.83625,10.8538 -8.88888,10.8538 -4.49123,0 -10.0117,-5.23976 -10.0117,-5.23976 l -5.61404,14.69006 c 0,0 7.01755,7.39181 18.05848,7.39181 15.4386,0 24.04679,-8.04678 24.04679,-23.20468 l 0,-55.391814 z"/>
		<path d="m 851.03581,52.807016 -16.2807,0 L 803.59722,130 l 18.90058,0 5.7076,-15.4386 29.38012,0 5.7076,15.4386 18.90059,0 -31.1579,-77.192984 z m 0.56141,46.31579 -17.40351,0 8.60818,-22.45614 0.18714,0 8.60819,22.45614 z"/>
		<path d="m 907.70394,52.807016 -17.59064,0 0,77.192984 44.16374,0 0,-15.4386 -26.5731,0 0,-61.754384 z"/>
		<path d="m 965.51827,52.807016 -17.59064,0 0,77.192984 17.59064,0 0,-77.192984 z"/>
	</g>
	<g>
		<path d="m 202.59046,252.10526 0,57.89474 13.19299,0 0,-22.87719 17.68421,22.87719 16.77193,0 -19.92983,-23.92982 c 7.08772,-2.24562 11.85965,-8.07018 11.85965,-16.77193 0,-11.36842 -8.14035,-17.19299 -18.87719,-17.19299 l -20.70176,0 z m 13.19299,25.68421 0,-15.15789 1.54386,0 c 4.98245,0 10.94737,0.35088 10.94737,7.57895 0,7.22807 -5.96492,7.57894 -10.94737,7.57894 l -1.54386,0 z"/>
		<path d="m 287.29551,252.10526 -12.21053,0 L 251.71656,310 l 14.17544,0 4.2807,-11.57895 22.03509,0 4.2807,11.57895 14.17544,0 -23.36842,-57.89474 z m 0.42105,34.73685 -13.05263,0 6.45614,-16.84211 0.14035,0 6.45614,16.84211 z"/>
		<path d="m 317.85362,252.10526 0,57.89474 21.96491,0 c 12,0 18.94737,-6.59649 18.94737,-16.14035 0,-9.33333 -5.12281,-13.33333 -12.35088,-14.59649 4.91228,-2.52632 7.22807,-7.08772 7.22807,-12.42105 0,-11.01755 -7.85965,-14.73685 -17.82456,-14.73685 l -17.96491,0 z m 13.19298,22.66667 0,-12.49123 1.05263,0 c 5.75439,0 8.77193,1.75439 8.77193,5.89474 0,4.8421 -3.08772,6.59649 -8.77193,6.59649 l -1.05263,0 z m 0,25.05263 0,-13.68421 4.14035,0 c 6.24562,0 9.68421,1.89474 9.68421,7.22807 0,4.5614 -3.43859,6.45614 -9.68421,6.45614 l -4.14035,0 z"/>
		<path d="m 382.78455,252.10526 -13.19299,0 0,57.89474 13.19299,0 0,-57.89474 z"/>
		<path d="m 409.44025,274.07018 0.14035,0 23.01754,35.92982 13.19298,0 0,-57.89474 -13.19298,0 0,35.92983 -0.14035,0 -23.01754,-35.92983 -13.19299,0 0,57.89474 13.19299,0 0,-35.92982 z"/>
		<path d="m 459.22422,252.10526 0,57.89474 16.77193,0 c 15.92983,0 29.19299,-12.07018 29.19299,-28.98246 0,-16.8421 -13.33334,-28.91228 -29.19299,-28.91228 l -16.77193,0 z m 13.19299,46.10527 0,-34.31579 2.03508,0 c 9.82456,0 16.49123,7.50877 16.49123,17.19298 -0.0702,9.68421 -6.73684,17.12281 -16.49123,17.12281 l -2.03508,0 z"/>
		<path d="m 516.03346,252.10526 0,57.89474 13.19298,0 0,-22.87719 17.68421,22.87719 16.77193,0 -19.92982,-23.92982 c 7.08772,-2.24562 11.85964,-8.07018 11.85964,-16.77193 0,-11.36842 -8.14035,-17.19299 -18.87719,-17.19299 l -20.70175,0 z m 13.19298,25.68421 0,-15.15789 1.54386,0 c 4.98246,0 10.94737,0.35088 10.94737,7.57895 0,7.22807 -5.96491,7.57894 -10.94737,7.57894 l -1.54386,0 z"/>
		<path d="m 600.73848,252.10526 -12.21053,0 L 565.15953,310 l 14.17544,0 4.2807,-11.57895 22.03509,0 4.2807,11.57895 14.17544,0 -23.36842,-57.89474 z m 0.42105,34.73685 -13.05263,0 6.45614,-16.84211 0.14035,0 6.45614,16.84211 z"/>
		<path d="m 644.48959,274.07018 0.14035,0 23.01755,35.92982 13.19298,0 0,-57.89474 -13.19298,0 0,35.92983 -0.14035,0 -23.01755,-35.92983 -13.19298,0 0,57.89474 13.19298,0 0,-35.92982 z"/>
		<path d="m 723.67708,252.10526 -12.21053,0 L 688.09813,310 l 14.17544,0 4.2807,-11.57895 22.03509,0 4.2807,11.57895 14.17544,0 -23.36842,-57.89474 z m 0.42105,34.73685 -13.05263,0 6.45614,-16.84211 0.14035,0 6.45614,16.84211 z"/>
		<path d="m 747.15954,263.68421 13.75439,0 0,46.31579 13.19298,0 0,-46.31579 13.75439,0 0,-11.57895 -40.70176,0 0,11.57895 z"/>
		<path d="m 810.80536,286.77193 18.66667,0 0,23.22807 13.19298,0 0,-57.89474 -13.19298,0 0,23.08772 -18.66667,0 0,-23.08772 -13.19298,0 0,57.89474 13.19298,0 0,-23.22807 z"/>
		<path d="m 873.17926,263.68421 13.75438,0 0,46.31579 13.19299,0 0,-46.31579 13.75438,0 0,-11.57895 -40.70175,0 0,11.57895 z"/>
		<path d="m 949.60909,252.10526 -12.21053,0 L 914.03014,310 l 14.17544,0 4.2807,-11.57895 22.03509,0 4.2807,11.57895 14.17544,0 -23.36842,-57.89474 z m 0.42105,34.73685 -13.05263,0 6.45614,-16.84211 0.14035,0 6.45614,16.84211 z"/>
		<path d="m 1032.5181,277.57895 -26.7369,0 0,10.17544 13.3334,0 c 0,7.08772 -6.2457,11.15789 -12.5614,11.15789 -8.1404,0 -14.73689,-8 -14.73689,-17.82456 0,-10.03509 6.59649,-18.10526 14.73689,-18.10526 5.1228,0 9.5438,2.03508 12.9122,7.43859 l 8.6316,-9.47368 c -5.0526,-6.10526 -12.1403,-9.89474 -22.3158,-9.89474 -16.28068,0 -28.21051,13.40351 -28.21051,30.03509 0,16.5614 12.63158,29.96491 28.21051,29.96491 11.3684,0 23.579,-6.24561 26.7369,-20.91228 l 0,-12.5614 z"/>
		<path d="m 1040.6848,281.01754 c 0,16.91228 12.0701,30.03509 29.193,30.03509 16.6315,0 29.1228,-13.12281 29.1228,-30.03509 0,-16.91228 -13.0527,-29.96491 -29.1228,-29.96491 -15.9299,0 -29.193,13.05263 -29.193,29.96491 z m 14.2456,0 c 0,-8.63157 4.7719,-17.26315 14.9474,-17.26315 10.2456,0 14.8771,8.63158 14.8771,17.26315 0,8.63158 -4.3508,17.26316 -14.8771,17.26316 -10.8071,0 -14.9474,-8.63158 -14.9474,-17.26316 z"/>
		<path d="m 1109.8218,252.10526 0,57.89474 13.193,0 0,-22.87719 17.6842,22.87719 16.7719,0 -19.9298,-23.92982 c 7.0877,-2.24562 11.8596,-8.07018 11.8596,-16.77193 0,-11.36842 -8.1403,-17.19299 -18.8772,-17.19299 l -20.7017,0 z m 13.193,25.68421 0,-15.15789 1.5438,0 c 4.9825,0 10.9474,0.35088 10.9474,7.57895 0,7.22807 -5.9649,7.57894 -10.9474,7.57894 l -1.5438,0 z"/>
		<path d="m 1198.2462,252.10526 -33.1228,0 0,57.89474 33.1228,0 0,-11.57895 -19.9299,0 0,-11.64912 19.0878,0 0,-11.57895 -19.0878,0 0,-11.50877 19.9299,0 0,-11.57895 z"/>
	</g>
</svg>

<?xml version="1.0" encoding="utf-8"?>
<svg xmlns="http://www.w3.org/2000/svg" xmlns:svg="http://www.w3.org/2000/svg" version="1.1" viewBox="0 0 1400 1050">
	<title>The titlepage for the Standard Ebooks edition of Gitanjali, by Rabindranath Tagore</title>
	<g aria-label="GITANJALI">
		<path d="m 504.22734,86.771929 h -35.64913 v 13.567251 h 17.77778 c 0,9.45029 -8.32748,14.87719 -16.74854,14.87719 -10.8538,0 -19.64912,-10.66666 -19.64912,-23.766078 0,-13.380117 8.79532,-24.140352 19.64912,-24.140352 6.83041,0 12.72515,2.713451 17.21638,9.918129 L 498.3326,64.59649 c -6.73684,-8.140351 -16.18714,-13.192983 -29.75439,-13.192983 -21.7076,0 -37.61403,17.871346 -37.61403,40.046785 0,22.081868 16.8421,39.953218 37.61403,39.953218 15.1579,0 31.4386,-8.32749 35.64913,-27.88304 z"/>
		<path d="M 534.50219,52.807016 H 516.91155 V 130 h 17.59064 z"/>
		<path d="m 541.35161,68.245613 h 18.33918 V 130 h 17.59064 V 68.245613 h 18.33918 V 52.807016 h -54.269 z"/>
		<path d="m 641.59137,52.807016 h -16.2807 L 594.15277,130 h 18.90059 l 5.7076,-15.4386 h 29.38012 L 653.84868,130 h 18.90059 z m 0.5614,46.31579 h -17.40351 l 8.60819,-22.45614 h 0.18714 z"/>
		<path d="m 698.2595,82.093566 h 0.18713 L 729.13669,130 h 17.59065 V 52.807016 h -17.59065 v 47.906434 h -0.18713 L 698.2595,52.807016 H 680.66886 V 130 h 17.59064 z"/>
		<path d="M 796.56213,52.807016 H 778.97148 V 103.7076 c 0,7.76608 -3.83625,10.8538 -8.88888,10.8538 -4.49123,0 -10.0117,-5.23976 -10.0117,-5.23976 l -5.61404,14.69006 c 0,0 7.01755,7.39181 18.05848,7.39181 15.4386,0 24.04679,-8.04678 24.04679,-23.20468 z"/>
		<path d="m 851.03581,52.807016 h -16.2807 L 803.59722,130 h 18.90058 l 5.7076,-15.4386 h 29.38012 L 863.29312,130 h 18.90059 z m 0.56141,46.31579 h -17.40351 l 8.60818,-22.45614 h 0.18714 z"/>
		<path d="M 907.70394,52.807016 H 890.1133 V 130 h 44.16374 v -15.4386 h -26.5731 z"/>
		<path d="M 965.51827,52.807016 H 947.92763 V 130 h 17.59064 z"/>
	</g>
	<g aria-label="RABINDRANATH TAGORE">
		<path d="M 202.59046,252.10526 V 310 h 13.19299 V 287.12281 L 233.46766,310 h 16.77193 l -19.92983,-23.92982 c 7.08772,-2.24562 11.85965,-8.07018 11.85965,-16.77193 0,-11.36842 -8.14035,-17.19299 -18.87719,-17.19299 z m 13.19299,25.68421 v -15.15789 h 1.54386 c 4.98245,0 10.94737,0.35088 10.94737,7.57895 0,7.22807 -5.96492,7.57894 -10.94737,7.57894 z"/>
		<path d="M 287.29551,252.10526 H 275.08498 L 251.71656,310 H 265.892 l 4.2807,-11.57895 h 22.03509 L 296.48849,310 h 14.17544 z m 0.42105,34.73685 H 274.66393 L 281.12007,270 h 0.14035 z"/>
		<path d="M 317.85362,252.10526 V 310 h 21.96491 c 12,0 18.94737,-6.59649 18.94737,-16.14035 0,-9.33333 -5.12281,-13.33333 -12.35088,-14.59649 4.91228,-2.52632 7.22807,-7.08772 7.22807,-12.42105 0,-11.01755 -7.85965,-14.73685 -17.82456,-14.73685 z m 13.19298,22.66667 V 262.2807 h 1.05263 c 5.75439,0 8.77193,1.75439 8.77193,5.89474 0,4.8421 -3.08772,6.59649 -8.77193,6.59649 z m 0,25.05263 v -13.68421 h 4.14035 c 6.24562,0 9.68421,1.89474 9.68421,7.22807 0,4.5614 -3.43859,6.45614 -9.68421,6.45614 z"/>
		<path d="M 382.78455,252.10526 H 369.59156 V 310 h 13.19299 z"/>
		<path d="m 409.44025,274.07018 h 0.14035 L 432.59814,310 h 13.19298 v -57.89474 h -13.19298 v 35.92983 h -0.14035 L 409.44025,252.10526 H 396.24726 V 310 h 13.19299 z"/>
		<path d="M 459.22422,252.10526 V 310 h 16.77193 c 15.92983,0 29.19299,-12.07018 29.19299,-28.98246 0,-16.8421 -13.33334,-28.91228 -29.19299,-28.91228 z m 13.19299,46.10527 v -34.31579 h 2.03508 c 9.82456,0 16.49123,7.50877 16.49123,17.19298 -0.0702,9.68421 -6.73684,17.12281 -16.49123,17.12281 z"/>
		<path d="M 516.03346,252.10526 V 310 h 13.19298 V 287.12281 L 546.91065,310 h 16.77193 l -19.92982,-23.92982 c 7.08772,-2.24562 11.85964,-8.07018 11.85964,-16.77193 0,-11.36842 -8.14035,-17.19299 -18.87719,-17.19299 z m 13.19298,25.68421 v -15.15789 h 1.54386 c 4.98246,0 10.94737,0.35088 10.94737,7.57895 0,7.22807 -5.96491,7.57894 -10.94737,7.57894 z"/>
		<path d="M 600.73848,252.10526 H 588.52795 L 565.15953,310 h 14.17544 l 4.2807,-11.57895 h 22.03509 L 609.93146,310 h 14.17544 z m 0.42105,34.73685 H 588.1069 L 594.56304,270 h 0.14035 z"/>
		<path d="m 644.48959,274.07018 h 0.14035 L 667.64749,310 h 13.19298 v -57.89474 h -13.19298 v 35.92983 h -0.14035 L 644.48959,252.10526 H 631.29661 V 310 h 13.19298 z"/>
		<path d="M 723.67708,252.10526 H 711.46655 L 688.09813,310 h 14.17544 l 4.2807,-11.57895 h 22.03509 L 732.87006,310 h 14.17544 z m 0.42105,34.73685 H 711.0455 L 717.50164,270 h 0.14035 z"/>
		<path d="m 747.15954,263.68421 h 13.75439 V 310 h 13.19298 v -46.31579 h 13.75439 v -11.57895 h -40.70176 z"/>
		<path d="m 810.80536,286.77193 h 18.66667 V 310 h 13.19298 v -57.89474 h -13.19298 v 23.08772 H 810.80536 V 252.10526 H 797.61238 V 310 h 13.19298 z"/>
		<path d="m 873.17926,263.68421 h 13.75438 V 310 h 13.19299 v -46.31579 h 13.75438 v -11.57895 h -40.70175 z"/>
		<path d="M 949.60909,252.10526 H 937.39856 L 914.03014,310 h 14.17544 l 4.2807,-11.57895 h 22.03509 L 958.80207,310 h 14.17544 z m 0.42105,34.73685 H 936.97751 L 943.43365,270 h 0.14035 z"/>
		<path d="m 1032.5181,277.57895 h -26.7369 v 10.17544 h 13.3334 c 0,7.08772 -6.2457,11.15789 -12.5614,11.15789 -8.1404,0 -14.73689,-8 -14.73689,-17.82456 0,-10.03509 6.59649,-18.10526 14.73689,-18.10526 5.1228,0 9.5438,2.03508 12.9122,7.43859 l 8.6316,-9.47368 c -5.0526,-6.10526 -12.1403,-9.89474 -22.3158,-9.89474 -16.28068,0 -28.21051,13.40351 -28.21051,30.03509 0,16.5614 12.63158,29.96491 28.21051,29.96491 11.3684,0 23.579,-6.24561 26.7369,-20.91228 z"/>
		<path d="m 1040.6848,281.01754 c 0,16.91228 12.0701,30.03509 29.193,30.03509 16.6315,0 29.1228,-13.12281 29.1228,-30.03509 0,-16.91228 -13.0527,-29.96491 -29.1228,-29.96491 -15.9299,0 -29.193,13.05263 -29.193,29.96491 z m 14.2456,0 c 0,-8.63157 4.7719,-17.26315 14.9474,-17.26315 10.2456,0 14.8771,8.63158 14.8771,17.26315 0,8.63158 -4.3508,17.26316 -14.8771,17.26316 -10.8071,0 -14.9474,-8.63158 -14.9474,-17.26316 z"/>
		<path d="M 1109.8218,252.10526 V 310 h 13.193 V 287.12281 L 1140.699,310 h 16.7719 l -19.9298,-23.92982 c 7.0877,-2.24562 11.8596,-8.07018 11.8596,-16.77193 0,-11.36842 -8.1403,-17.19299 -18.8772,-17.19299 z m 13.193,25.68421 v -15.15789 h 1.5438 c 4.9825,0 10.9474,0.35088 10.9474,7.57895 0,7.22807 -5.9649,7.57894 -10.9474,7.57894 z"/>
		<path d="m 1198.2462,252.10526 h -33.1228 V 310 h 33.1228 v -11.57895 h -19.9299 v -11.64912 h 19.0878 v -11.57895 h -19.0878 v -11.50877 h 19.9299 z"/>
	</g>
</svg>
